material/.icons/material/diving-scuba.svg

<svg xmlns="http://www.w3.org/2000/svg" viewBox="0 0 24 24"><path d="M12 15c1.31 0 2.42.83 2.83 2H18a4 4 0 014 4v1h-2v-1a2 2 0 00-2-2h-3.17A2.99 2.99 0 0112 21a3 3 0 01-3-3 3 3 0 013-3m0 2a1 1 0 00-1 1 1 1 0 001 1 1 1 0 001-1 1 1 0 00-1-1m6-14a2 2 0 012 2v5a2 2 0 01-2 2h-3.15c-.42 0-.8.24-.95.63-.2.6-.67 1.08-1.28 1.28-1.04.34-2.18-.23-2.52-1.28-.15-.39-.53-.63-.95-.63H6a2 2 0 01-2-2V5a2 2 0 012-2h12m0 7V5H6v5h4.65c.25-.54.76-.91 1.35-1 .59.09 1.1.46 1.35 1H18z"/></svg>

<?xml version="1.0" encoding="UTF-8"?><!DOCTYPE svg PUBLIC "-//W3C//DTD SVG 1.1//EN" "http://www.w3.org/Graphics/SVG/1.1/DTD/svg11.dtd"><svg xmlns="http://www.w3.org/2000/svg" xmlns:xlink="http://www.w3.org/1999/xlink" version="1.1" id="mdi-diving-scuba" width="24" height="24" viewBox="0 0 24 24"><path d="M12,15C13.31,15 14.42,15.83 14.83,17H18A4,4 0 0,1 22,21V22H20V21A2,2 0 0,0 18,19H14.83C14.42,20.17 13.31,21 12,21A3,3 0 0,1 9,18A3,3 0 0,1 12,15M12,17A1,1 0 0,0 11,18A1,1 0 0,0 12,19A1,1 0 0,0 13,18A1,1 0 0,0 12,17M18,3A2,2 0 0,1 20,5V10A2,2 0 0,1 18,12H14.85C14.43,12 14.05,12.24 13.9,12.63C13.7,13.23 13.23,13.71 12.62,13.91C11.58,14.25 10.44,13.68 10.1,12.63C9.95,12.24 9.57,12 9.15,12H6A2,2 0 0,1 4,10V5A2,2 0 0,1 6,3H18M18,10V5H6V10H10.65C10.9,9.46 11.41,9.09 12,9C12.59,9.09 13.1,9.46 13.35,10H18Z" /></svg>
